X: 12
T:Devil's Dream,The. WCa.12
M:2/4
L:1/8
Q:350
S:Wm. Calvert MS, 1812, Leyburn, Yorks.
R:Reel
O:England
A:North Yorkshire
Z:vmp.Chris Partington, May 2003
K:A
eaga eaga|eaga fedc|dfBf dfBf|dfBf gfed|!
eaga eaga|eaga fedc|defg aefd|c2B2 A4:|!
|:ceAe ceAe|ceAe fedc|dfBf dfBf|dfBf gfed|!
ceAe ceAe|ceAe fedc|defg aefd|c2B2 A4:||
